packages/ffe-icons/icons/open/400/sm/partner_reports.svg

<svg xmlns="http://www.w3.org/2000/svg" height="20" viewBox="0 -960 960 960" width="20"><path d="M480.21-288q-15.21 0-25.71-10.29t-10.5-25.5q0-15.21 10.29-25.71t25.5-10.5q15.21 0 25.71 10.29t10.5 25.5q0 15.21-10.29 25.71t-25.5 10.5Zm0-144q-15.21 0-25.71-10.35T444-468v-312q0-15.3 10.29-25.65Q464.58-816 479.79-816t25.71 10.35Q516-795.3 516-780v312q0 15.3-10.29 25.65Q495.42-432 480.21-432ZM216-144q-29.7 0-50.85-21.15Q144-186.3 144-216v-79q0-15.3 10.29-25.65Q164.58-331 179.79-331t25.71 10.35Q216-310.3 216-295v79h528v-79q0-15.3 10.29-25.65Q764.58-331 779.79-331t25.71 10.35Q816-310.3 816-295v79q0 29.7-21.15 50.85Q773.7-144 744-144H216Z"/></svg>

<svg xmlns="http://www.w3.org/2000/svg" height="20" viewBox="0 -960 960 960" width="20"><path d="M480.211-288Q465-288 454.5-298.289q-10.5-10.29-10.5-25.5Q444-339 454.289-349.5q10.29-10.5 25.5-10.5Q495-360 505.5-349.711q10.5 10.29 10.5 25.5Q516-309 505.711-298.5q-10.29 10.5-25.5 10.5Zm0-144Q465-432 454.5-442.35 444-452.7 444-468v-312q0-15.3 10.289-25.65 10.29-10.35 25.5-10.35Q495-816 505.5-805.65 516-795.3 516-780v312q0 15.3-10.289 25.65-10.29 10.35-25.5 10.35ZM216-144q-29.7 0-50.85-21.15Q144-186.3 144-216v-79q0-15.3 10.289-25.65 10.29-10.35 25.5-10.35Q195-331 205.5-320.65 216-310.3 216-295v79h528v-79q0-15.3 10.289-25.65 10.29-10.35 25.5-10.35Q795-331 805.5-320.65 816-310.3 816-295v79q0 29.7-21.15 50.85Q773.7-144 744-144H216Z"/></svg>
